assets/replit/mono.svg

<svg viewBox="0 0 24 24" xmlns="http://www.w3.org/2000/svg"><path d="m2 1.5a1.5 1.5 0 0 1 1.5-1.5h7a1.5 1.5 0 0 1 1.5 1.5v6.5h-8.5a1.5 1.5 0 0 1 -1.5-1.5zm10 6.5h8.5a1.5 1.5 0 0 1 1.5 1.5v5a1.5 1.5 0 0 1 -1.5 1.5h-8.5zm-10 9.5a1.5 1.5 0 0 1 1.5-1.5h8.5v6.5a1.5 1.5 0 0 1 -1.5 1.5h-7a1.5 1.5 0 0 1 -1.5-1.5z"/></svg>

<svg xmlns="http://www.w3.org/2000/svg" viewBox="0 0 24 24"><path d="M2 1.5A1.5 1.5 0 0 1 3.5 0h7A1.5 1.5 0 0 1 12 1.5V8H3.5A1.5 1.5 0 0 1 2 6.5zM12 8h8.5A1.5 1.5 0 0 1 22 9.5v5a1.5 1.5 0 0 1-1.5 1.5H12zM2 17.5A1.5 1.5 0 0 1 3.5 16H12v6.5a1.5 1.5 0 0 1-1.5 1.5h-7A1.5 1.5 0 0 1 2 22.5z"/></svg>
